X: 36135
T: Scotch Cap
R: jig
M: 6/8
K: Ddorian
|:[A,A]|D2 D d2 d|e2 d c2 A|B2 d B A2|B3 d2:|
|:d/e/|f2 A A2 d/e/|f2 A A2 d/e/|f2 A A2 F|A3 d3|
B2 B A2 F|G2 G d2 d|1 B2 B A F2|G3 d2:|2 _B2 B A D2|E3 D2||

